X:904
T:Reel 904
M:4/4
K:Cmaj
L:1/8
G2EG GEDE|CEGE FEDc|GEGA GEDC|fedc BGAB|c2GE CEGE|CEGE DEFA|GEGA GEDC|fdec dBcA|G|c2ge cedc|BGdG fGBd|cege fedc|dBAB cBcd|cege fedc| (3BAG dG eGdB|cege fedc|BGAB cedc|
